build/images/vector/acm.svg

<svg width="502" height="502" viewBox="0 0 502 502" xmlns="http://www.w3.org/2000/svg"><title>Imported Layers</title><g fill="none" fill-rule="evenodd"><path d="M.735.722h500.937V501.66H.735V.72z" fill="#9E9E9E"/><path d="M84.505 155.642l-9.476-1.37 3.49-11.97h27.184l3.492 11.97-9.352 1.37v9.727h33.916v-9.354l-9.227-1.87-22.57-73.57h-19.08l-22.816 73.696-9.228 1.744v9.353h33.665v-9.728zm.126-35.912c2.994-9.6 6.11-21.447 7.358-26.56h.25c.872 3.617 4.115 15.463 7.232 26.312l3.117 10.598H81.514l3.117-10.35zM175.4 156.016l-11.473-1.744v-27.184c2.12-7.48 6.982-12.096 12.22-12.096 1.372 0 2.243.125 2.743.374l1.372 8.728h9.102v-18.827c-3.242-1.87-7.48-3.242-11.722-3.242-6.982 0-13.466 5.985-14.84 12.094h-.247l-.374-10.848h-5.736l-17.956 2.244v8.98l10.226.87v38.906l-10.226 1.744v9.353h36.91v-9.354M215.043 127.71c-10.848 0-18.33 6.11-18.33 19.828 0 12.72 8.23 19.204 18.83 19.204 6.608 0 9.6-2.37 17.83-7.483h.25l1.497 6.358h7.73l15.09-2.12v-8.23l-9.728-1.247c-.248-1.37-.5-3.613-.5-5.234V123.72c0-14.09-6.98-21.695-24.19-21.695-8.105 0-14.587 1.745-22.942 4.364v15.586h9.85l1.37-6.236c2.995-.997 6.734-1.745 9.48-1.745 7.73 0 11.222 2.493 11.222 10.1v5.61c-6.236-.248-11.722-1.994-17.46-1.994zm17.46 23.194c-6.736 3.742-8.232 5.238-12.222 5.238-6.36 0-8.976-4.24-8.976-9.85 0-7.108 3.616-9.603 8.85-9.603 2.87 0 7.86.996 12.348 1.247v12.967zM268.78 165.37h13.466l.5-5.737h.25c3.365 3.492 9.85 7.11 16.084 7.11 15.837 0 26.31-11.972 26.31-32.297 0-20.95-8.354-32.546-24.938-32.546-7.107 0-12.096 4.988-16.21 9.352h-.25V75.59h-7.48l-17.957 2.368v8.98l10.224.747v77.684zm15.212-42.024c2.494-3.365 7.107-8.728 11.97-8.728 9.103 0 13.84 5.86 13.84 19.828 0 13.84-6.107 19.575-14.338 19.575-4.114 0-9.228-3.365-11.472-6.233v-24.44zM95.354 223.07c2.12 0 3.49.126 5.238.75l1.87 9.725h10.474v-21.072c-4.987-1.747-10.1-3.118-16.834-3.118-23.567 0-41.273 16.085-41.273 43.642 0 27.558 14.713 43.644 38.405 43.644 8.978 0 14.714-1.495 21.57-3.864l-3.99-12.844c-6.36 1.995-11.345 2.87-17.456 2.87-13.842 0-22.196-10.85-22.196-29.805 0-18.952 11.346-29.926 24.19-29.926M122.78 286.04v9.354h35.663v-9.353l-10.225-1.744v-51h-7.482l-17.956 2.245v8.98l10.225.87v38.906l-10.225 1.745M149.59 215.09c0-4.863-4.116-8.728-9.352-8.728-5.114 0-9.353 3.865-9.353 8.728 0 4.738 4.24 8.73 9.353 8.73 5.236 0 9.35-3.992 9.35-8.73M189.86 296.64c5.238 0 12.345-1.495 17.83-3.615l-3.74-11.472c-3.864 1.37-7.48 2.244-10.848 2.244-3.49 0-5.61-1.995-5.61-6.234v-32.67h15.337v-11.596h-15.34v-16.585L172.28 221.7v11.597h-8.354v11.596h8.354v36.91c0 9.975 7.732 14.838 17.582 14.838M221.276 215.09c0 4.738 4.24 8.73 9.353 8.73 5.234 0 9.35-3.992 9.35-8.73 0-4.863-4.116-8.728-9.35-8.728-5.115 0-9.354 3.865-9.354 8.728M248.833 286.04l-10.224-1.744v-51h-7.484l-17.956 2.245v8.98l10.226.87v38.906l-10.226 1.745v9.354h35.663v-9.353M268.78 245.765h19.576v.25c-3.367 3.74-8.605 9.477-11.722 13.093l-20.325 24.938v11.348h50.875V274.32h-9.352l-1.62 8.604h-22.196v-.25c2.492-2.742 5.86-6.358 8.603-9.725l23.692-28.307v-11.346h-48.008v20.074h9.103l1.372-7.605M370.772 263.597c0-20.45-8.23-31.673-25.935-31.673-17.208 0-28.556 11.722-28.556 32.17 0 20.702 10.6 32.547 31.55 32.547 8.353 0 13.964-1.246 20.075-2.992l-2.62-11.347c-5.486 1.497-10.35 2.62-17.83 2.62-9.602 0-16.96-6.61-16.96-17.83h40.277v-3.493zm-12.842-5.985h-27.31c.625-8.98 6.485-15.09 14.217-15.09 8.478 0 13.093 6.485 13.093 14.84v.25zM441.34 252c0-13.84-7.728-20.076-17.83-20.076-8.105 0-16.334 4.615-19.825 10.724h-.25l-.872-9.35H396.7l-17.955 2.243v8.98l10.226.87v38.906l-10.225 1.745v9.354h33.17v-9.353l-7.73-1.744v-31.048c3.864-5.237 8.228-8.854 14.462-8.854 4.116 0 7.483 2.87 7.483 10.1v29.802l-6.735 1.745v9.354h32.173v-9.353l-10.227-1.744V252M114.308 357.585c-5.61 10.475-11.347 21.572-13.217 25.81h-.248c-1.62-4.112-7.233-15.086-12.97-25.81l-8.853-16.96H54.33v9.354l10.224 1.745v62.596l-10.224 1.746v9.353h36.41v-9.354l-10.225-1.745v-20.823c0-9.353-.123-20.7-.374-24.69h.252c1.37 3.118 6.858 13.967 12.22 24.067l4.862 9.352h7.108l4.988-9.352c5.113-9.478 10.473-20.327 12.22-24.066h.25c-.25 3.99-.375 15.213-.375 24.564v20.95l-10.225 1.744v9.353h36.41v-9.354l-10.225-1.745v-62.595l10.226-1.746v-9.354h-24.813l-8.73 16.96M183.503 361.95c-17.207 0-28.555 11.72-28.555 32.17 0 20.7 10.6 32.546 31.548 32.546 8.354 0 13.966-1.247 20.076-2.994l-2.62-11.346c-5.485 1.496-10.35 2.618-17.83 2.618-9.602 0-16.96-6.608-16.96-17.83h40.28v-3.492c0-20.45-8.232-31.673-25.94-31.673zm13.094 25.687h-27.31c.625-8.98 6.486-15.09 14.216-15.09 8.48 0 13.094 6.485 13.094 14.84v.25zM275.022 335.64h-7.606l-17.956 2.368v8.98l10.35.747v22.943h-.25c-4.115-4.24-8.98-8.73-16.335-8.73-16.46 0-24.94 11.598-24.94 32.548 0 20.325 10.6 32.295 26.436 32.295 6.61 0 12.97-4.862 16.086-8.603h.25l.748 7.48h8.106l15.336-2.118v-8.232l-10.224-1.247v-78.43zm-15.213 71.324c-1.996 2.62-7.36 6.983-11.35 6.983-8.353 0-14.587-5.61-14.587-19.45 0-13.97 4.863-19.83 13.965-19.83 4.613 0 9.228 4.365 11.97 8.107v24.19zM317.16 363.322h-7.484l-17.956 2.243v8.98l10.226.87v38.906l-10.226 1.746v9.353h35.664v-9.354l-10.225-1.745v-50.998M309.18 336.387c-5.115 0-9.354 3.865-9.354 8.728 0 4.738 4.24 8.73 9.353 8.73 5.234 0 9.35-3.992 9.35-8.73 0-4.863-4.116-8.728-9.35-8.728M386.233 408.835V383.77c0-14.09-6.982-21.695-24.19-21.695-8.106 0-14.588 1.744-22.943 4.364v15.586h9.85l1.37-6.236c2.995-.997 6.735-1.745 9.48-1.745 7.73 0 11.222 2.493 11.222 10.1v5.61c-6.236-.248-11.722-1.994-17.46-1.994-10.847 0-18.328 6.11-18.328 19.828 0 12.72 8.23 19.203 18.83 19.203 6.607 0 9.6-2.37 17.83-7.482h.25l1.496 6.36h7.732l15.087-2.12v-8.23l-9.728-1.247c-.248-1.37-.5-3.614-.5-5.235zm-15.21 2.12c-6.736 3.74-8.232 5.236-12.222 5.236-6.358 0-8.976-4.237-8.976-9.85 0-7.106 3.616-9.6 8.852-9.6 2.868 0 7.857.996 12.346 1.247v12.967z" fill="#FFF"/></g></svg>

<?xml version="1.0" encoding="UTF-8" standalone="no"?>
<svg width="502px" height="502px" viewBox="0 0 502 502" version="1.1" xmlns="http://www.w3.org/2000/svg" xmlns:xlink="http://www.w3.org/1999/xlink" xmlns:sketch="http://www.bohemiancoding.com/sketch/ns">
    <!-- Generator: Sketch 3.3.1 (12005) - http://www.bohemiancoding.com/sketch -->
    <title>Imported Layers</title>
    <desc>Created with Sketch.</desc>
    <defs></defs>
    <g id="Page-1" stroke="none" stroke-width="1" fill="none" fill-rule="evenodd" sketch:type="MSPage">
        <g id="Imported-Layers" sketch:type="MSLayerGroup">
            <path d="M0.735,0.722 L501.672,0.722 L501.672,501.659 L0.735,501.659 L0.735,0.722 Z" id="Fill-1" fill="#9E9E9E" sketch:type="MSShapeGroup"></path>
            <path d="M84.505,155.642 L75.029,154.272 L78.52,142.301 L105.704,142.301 L109.196,154.272 L99.844,155.642 L99.844,165.369 L133.76,165.369 L133.76,156.016 L124.533,154.146 L101.964,80.576 L82.884,80.576 L60.067,154.272 L50.839,156.016 L50.839,165.369 L84.505,165.369 L84.505,155.642 L84.505,155.642 Z M84.631,119.73 C87.624,110.129 90.741,98.283 91.988,93.171 L92.237,93.171 C93.11,96.787 96.353,108.633 99.47,119.482 L102.587,130.08 L81.514,130.08 L84.631,119.73 L84.631,119.73 Z" id="Fill-2" fill="#FFFFFF" sketch:type="MSShapeGroup"></path>
            <path d="M175.399,156.016 L163.927,154.272 L163.927,127.088 C166.046,119.607 170.909,114.992 176.147,114.992 C177.519,114.992 178.39,115.117 178.89,115.366 L180.262,124.094 L189.364,124.094 L189.364,105.267 C186.122,103.396 181.883,102.025 177.642,102.025 C170.66,102.025 164.176,108.01 162.803,114.119 L162.555,114.119 L162.181,103.272 L156.444,103.272 L138.488,105.516 L138.488,114.495 L148.714,115.366 L148.714,154.272 L138.488,156.016 L138.488,165.369 L175.399,165.369 L175.399,156.016" id="Fill-3" fill="#FFFFFF" sketch:type="MSShapeGroup"></path>
            <path d="M215.043,127.711 C204.195,127.711 196.713,133.821 196.713,147.538 C196.713,160.257 204.944,166.742 215.543,166.742 C222.151,166.742 225.144,164.371 233.373,159.259 L233.624,159.259 L235.12,165.618 L242.851,165.618 L257.939,163.499 L257.939,155.268 L248.212,154.021 C247.964,152.651 247.713,150.407 247.713,148.786 L247.713,123.721 C247.713,109.631 240.731,102.025 223.523,102.025 C215.417,102.025 208.935,103.77 200.58,106.389 L200.58,121.976 L210.43,121.976 L211.801,115.74 C214.795,114.743 218.534,113.995 221.279,113.995 C229.009,113.995 232.502,116.488 232.502,124.094 L232.502,129.706 C226.266,129.457 220.78,127.711 215.043,127.711 L215.043,127.711 Z M232.502,150.904 C225.767,154.646 224.271,156.142 220.281,156.142 C213.921,156.142 211.304,151.902 211.304,146.291 C211.304,139.184 214.92,136.689 220.155,136.689 C223.024,136.689 228.013,137.686 232.502,137.937 L232.502,150.904 L232.502,150.904 Z" id="Fill-4" fill="#FFFFFF" sketch:type="MSShapeGroup"></path>
            <path d="M268.779,165.369 L282.246,165.369 L282.745,159.633 L282.995,159.633 C286.361,163.125 292.846,166.742 299.08,166.742 C314.917,166.742 325.39,154.771 325.39,134.446 C325.39,113.496 317.036,101.9 300.452,101.9 C293.345,101.9 288.356,106.888 284.241,111.252 L283.992,111.252 L283.992,75.589 L276.511,75.589 L258.555,77.958 L258.555,86.937 L268.779,87.685 L268.779,165.369 L268.779,165.369 Z M283.992,123.346 C286.486,119.981 291.099,114.618 295.963,114.618 C305.065,114.618 309.803,120.478 309.803,134.446 C309.803,148.286 303.695,154.021 295.464,154.021 C291.35,154.021 286.236,150.655 283.992,147.787 L283.992,123.346 L283.992,123.346 Z" id="Fill-5" fill="#FFFFFF" sketch:type="MSShapeGroup"></path>
            <path d="M95.354,223.071 C97.474,223.071 98.845,223.196 100.592,223.819 L102.461,233.545 L112.936,233.545 L112.936,212.473 C107.949,210.726 102.835,209.355 96.102,209.355 C72.535,209.355 54.829,225.44 54.829,252.997 C54.829,280.555 69.543,296.641 93.235,296.641 C102.213,296.641 107.949,295.145 114.806,292.776 L110.816,279.932 C104.456,281.927 99.47,282.801 93.359,282.801 C79.518,282.801 71.164,271.952 71.164,252.997 C71.164,234.045 82.51,223.071 95.354,223.071" id="Fill-6" fill="#FFFFFF" sketch:type="MSShapeGroup"></path>
            <path d="M122.78,286.041 L122.78,295.394 L158.443,295.394 L158.443,286.041 L148.218,284.296 L148.218,233.297 L140.736,233.297 L122.78,235.541 L122.78,244.52 L133.005,245.391 L133.005,284.296 L122.78,286.041" id="Fill-7" fill="#FFFFFF" sketch:type="MSShapeGroup"></path>
            <path d="M149.589,215.09 C149.589,210.227 145.474,206.362 140.238,206.362 C135.124,206.362 130.885,210.227 130.885,215.09 C130.885,219.828 135.124,223.819 140.238,223.819 C145.474,223.819 149.589,219.828 149.589,215.09" id="Fill-8" fill="#FFFFFF" sketch:type="MSShapeGroup"></path>
            <path d="M189.86,296.641 C195.098,296.641 202.205,295.145 207.691,293.025 L203.951,281.553 C200.086,282.924 196.47,283.797 193.102,283.797 C189.611,283.797 187.491,281.802 187.491,277.563 L187.491,244.893 L202.829,244.893 L202.829,233.297 L187.491,233.297 L187.491,216.712 L172.278,221.7 L172.278,233.297 L163.924,233.297 L163.924,244.893 L172.278,244.893 L172.278,281.802 C172.278,291.778 180.01,296.641 189.86,296.641" id="Fill-9" fill="#FFFFFF" sketch:type="MSShapeGroup"></path>
            <path d="M221.276,215.09 C221.276,219.828 225.515,223.819 230.629,223.819 C235.864,223.819 239.98,219.828 239.98,215.09 C239.98,210.227 235.864,206.362 230.629,206.362 C225.515,206.362 221.276,210.227 221.276,215.09" id="Fill-10" fill="#FFFFFF" sketch:type="MSShapeGroup"></path>
            <path d="M248.833,286.041 L238.609,284.296 L238.609,233.297 L231.126,233.297 L213.17,235.541 L213.17,244.52 L223.396,245.391 L223.396,284.296 L213.17,286.041 L213.17,295.394 L248.833,295.394 L248.833,286.041" id="Fill-11" fill="#FFFFFF" sketch:type="MSShapeGroup"></path>
            <path d="M268.779,245.765 L288.356,245.765 L288.356,246.015 C284.989,249.755 279.751,255.492 276.634,259.108 L256.309,284.046 L256.309,295.394 L307.185,295.394 L307.185,274.321 L297.833,274.321 L296.212,282.924 L274.017,282.924 L274.017,282.675 C276.509,279.932 279.877,276.316 282.62,272.949 L306.312,244.643 L306.312,233.297 L258.304,233.297 L258.304,253.371 L267.407,253.371 L268.779,245.765" id="Fill-12" fill="#FFFFFF" sketch:type="MSShapeGroup"></path>
            <path d="M370.772,263.597 C370.772,243.147 362.543,231.924 344.837,231.924 C327.629,231.924 316.281,243.646 316.281,264.095 C316.281,284.796 326.879,296.641 347.829,296.641 C356.183,296.641 361.794,295.394 367.905,293.648 L365.286,282.301 C359.799,283.797 354.936,284.919 347.455,284.919 C337.853,284.919 330.495,278.311 330.495,267.089 L370.772,267.089 L370.772,263.597 L370.772,263.597 Z M357.93,257.612 L330.621,257.612 C331.245,248.633 337.105,242.523 344.837,242.523 C353.315,242.523 357.93,249.007 357.93,257.362 L357.93,257.612 L357.93,257.612 Z" id="Fill-13" fill="#FFFFFF" sketch:type="MSShapeGroup"></path>
            <path d="M441.341,252.001 C441.341,238.159 433.612,231.924 423.511,231.924 C415.405,231.924 407.176,236.539 403.685,242.648 L403.434,242.648 L402.563,233.297 L396.701,233.297 L378.745,235.541 L378.745,244.52 L388.971,245.391 L388.971,284.296 L378.745,286.041 L378.745,295.394 L411.914,295.394 L411.914,286.041 L404.184,284.296 L404.184,253.248 C408.049,248.011 412.413,244.394 418.647,244.394 C422.763,244.394 426.13,247.263 426.13,254.493 L426.13,284.296 L419.395,286.041 L419.395,295.394 L451.568,295.394 L451.568,286.041 L441.341,284.296 L441.341,252.001" id="Fill-14" fill="#FFFFFF" sketch:type="MSShapeGroup"></path>
            <path d="M114.308,357.585 C108.697,368.06 102.961,379.157 101.091,383.396 L100.842,383.396 C99.221,379.283 93.609,368.309 87.873,357.585 L79.019,340.626 L54.33,340.626 L54.33,349.979 L64.554,351.725 L64.554,414.321 L54.33,416.066 L54.33,425.419 L90.741,425.419 L90.741,416.066 L80.515,414.321 L80.515,393.497 C80.515,384.144 80.392,372.798 80.141,368.808 L80.392,368.808 C81.762,371.925 87.25,382.774 92.611,392.874 L97.474,402.226 L104.582,402.226 L109.57,392.874 C114.683,383.396 120.043,372.547 121.79,368.808 L122.039,368.808 C121.79,372.798 121.665,384.021 121.665,393.372 L121.665,414.321 L111.44,416.066 L111.44,425.419 L147.851,425.419 L147.851,416.066 L137.625,414.321 L137.625,351.725 L147.851,349.979 L147.851,340.626 L123.037,340.626 L114.308,357.585" id="Fill-15" fill="#FFFFFF" sketch:type="MSShapeGroup"></path>
            <path d="M183.503,361.949 C166.296,361.949 154.948,373.671 154.948,394.12 C154.948,414.821 165.548,426.666 186.496,426.666 C194.85,426.666 200.462,425.419 206.572,423.672 L203.953,412.326 C198.467,413.822 193.603,414.944 186.122,414.944 C176.52,414.944 169.163,408.336 169.163,397.113 L209.441,397.113 L209.441,393.622 C209.441,373.172 201.21,361.949 183.503,361.949 L183.503,361.949 Z M196.597,387.637 L169.288,387.637 C169.912,378.658 175.773,372.547 183.503,372.547 C191.982,372.547 196.597,379.032 196.597,387.387 L196.597,387.637 L196.597,387.637 Z" id="Fill-16" fill="#FFFFFF" sketch:type="MSShapeGroup"></path>
            <path d="M275.022,335.639 L267.416,335.639 L249.46,338.008 L249.46,346.987 L259.809,347.735 L259.809,370.678 L259.56,370.678 C255.445,366.439 250.581,361.949 243.225,361.949 C226.765,361.949 218.286,373.546 218.286,394.496 C218.286,414.821 228.884,426.791 244.721,426.791 C251.329,426.791 257.689,421.928 260.806,418.187 L261.056,418.187 L261.804,425.668 L269.91,425.668 L285.246,423.549 L285.246,415.318 L275.022,414.071 L275.022,335.639 L275.022,335.639 Z M259.809,406.964 C257.814,409.583 252.451,413.947 248.461,413.947 C240.107,413.947 233.873,408.336 233.873,394.496 C233.873,380.528 238.736,374.668 247.838,374.668 C252.451,374.668 257.066,379.032 259.809,382.774 L259.809,406.964 L259.809,406.964 Z" id="Fill-17" fill="#FFFFFF" sketch:type="MSShapeGroup"></path>
            <path d="M317.159,363.322 L309.676,363.322 L291.72,365.565 L291.72,374.544 L301.946,375.416 L301.946,414.321 L291.72,416.066 L291.72,425.419 L327.384,425.419 L327.384,416.066 L317.159,414.321 L317.159,363.322" id="Fill-18" fill="#FFFFFF" sketch:type="MSShapeGroup"></path>
            <path d="M309.179,336.387 C304.065,336.387 299.826,340.252 299.826,345.115 C299.826,349.853 304.065,353.844 309.179,353.844 C314.414,353.844 318.53,349.853 318.53,345.115 C318.53,340.252 314.414,336.387 309.179,336.387" id="Fill-19" fill="#FFFFFF" sketch:type="MSShapeGroup"></path>
            <path d="M386.233,408.835 L386.233,383.77 C386.233,369.681 379.251,362.075 362.043,362.075 C353.937,362.075 347.455,363.819 339.1,366.439 L339.1,382.026 L348.951,382.026 L350.321,375.79 C353.315,374.793 357.055,374.045 359.799,374.045 C367.529,374.045 371.022,376.538 371.022,384.144 L371.022,389.756 C364.786,389.507 359.3,387.761 353.563,387.761 C342.715,387.761 335.234,393.871 335.234,407.588 C335.234,420.307 343.465,426.791 354.063,426.791 C360.671,426.791 363.664,424.42 371.894,419.308 L372.144,419.308 L373.64,425.668 L381.372,425.668 L396.459,423.549 L396.459,415.318 L386.732,414.071 C386.484,412.7 386.233,410.456 386.233,408.835 L386.233,408.835 Z M371.022,410.954 C364.287,414.695 362.791,416.191 358.801,416.191 C352.442,416.191 349.824,411.953 349.824,406.341 C349.824,399.234 353.44,396.739 358.676,396.739 C361.544,396.739 366.533,397.736 371.022,397.987 L371.022,410.954 L371.022,410.954 Z" id="Fill-20" fill="#FFFFFF" sketch:type="MSShapeGroup"></path>
        </g>
    </g>
</svg>
